X: 30133
T: Old Bush, The
R: reel
M: 4/4
K: Adorian
A2GA cA~A2|d^cde fded|A2GA cA~A2|dfed cAdc|
A2GA cA~A2|d^cde ~f2fg|afge fde^c|1 dfed cAdc:|2 dfed cA~A2||
|:eg~g2 ed^cd|efge c3d|eg~g2 afge|dfed cA~A2|
eg~g2 ag~g2|~f2fe defg|afge fde^c|1 dfed cA~A2:|2 dfed cAdc||

